build/images/icons/dribble.svg

<svg xmlns="http://www.w3.org/2000/svg" width="16" height="16"><path d="M15.837 6.404a7.958 7.958 0 00-2.18-4.046A7.935 7.935 0 009.611.177a8.04 8.04 0 00-6.085 1.204 8.082 8.082 0 00-2.159 2.16A7.94 7.94 0 000 8.014a7.906 7.906 0 00.629 3.115A8.012 8.012 0 008 16.016a7.97 7.97 0 003.114-.63 8.02 8.02 0 004.257-4.257A7.964 7.964 0 0016 8.014a7.96 7.96 0 00-.163-1.61zM14.83 7.947c-.099-.022-2.411-.519-4.759-.224-.048-.117-.096-.234-.147-.353a21.085 21.085 0 00-.454-.991c2.698-1.101 3.794-2.686 3.807-2.704a6.804 6.804 0 011.553 4.272zm-2.317-5.059c-.017.026-.99 1.507-3.569 2.473A34.613 34.613 0 006.39 1.375a6.803 6.803 0 016.123 1.513zM6.364 1.381l-.002.001-.02.005c.007-.003.014-.004.022-.006zm-1.279.455a41.078 41.078 0 012.537 3.936c-3.281.872-6.128.838-6.308.834a6.84 6.84 0 013.771-4.77zM1.168 8.014c0-.072.003-.144.005-.216.121.003 3.497.08 7.015-.972.196.382.383.772.554 1.16a8.34 8.34 0 00-.269.082c-3.687 1.192-5.557 4.51-5.557 4.51s.002.001.002.003a6.81 6.81 0 01-1.75-4.567zM8 14.847a6.797 6.797 0 01-4.352-1.566c.09.073.153.12.153.12s1.31-2.857 5.362-4.268l.045-.014c.961 2.498 1.358 4.59 1.459 5.188a6.806 6.806 0 01-2.667.54zm3.818-1.165c-.07-.413-.434-2.418-1.33-4.88 2.206-.353 4.117.251 4.258.298a6.838 6.838 0 01-2.928 4.582z"/></svg>

<svg 
 xmlns="http://www.w3.org/2000/svg"
 xmlns:xlink="http://www.w3.org/1999/xlink"
 width="16px" height="16px">
<path 
 d="M15.837,6.404 C15.733,5.891 15.575,5.384 15.371,4.900 C15.171,4.425 14.922,3.969 14.633,3.541 C14.347,3.118 14.019,2.720 13.657,2.358 C13.295,1.996 12.897,1.668 12.473,1.381 C12.046,1.092 11.588,0.844 11.114,0.644 C10.631,0.440 10.125,0.282 9.611,0.177 C9.084,0.069 8.542,0.015 8.000,0.015 C7.458,0.015 6.916,0.069 6.389,0.177 C5.875,0.282 5.369,0.440 4.885,0.644 C4.411,0.844 3.954,1.092 3.526,1.381 C3.103,1.668 2.704,1.996 2.343,2.358 C1.981,2.720 1.653,3.118 1.367,3.541 C1.078,3.969 0.829,4.425 0.629,4.900 C0.424,5.384 0.267,5.891 0.162,6.404 C0.054,6.930 -0.000,7.473 -0.000,8.014 C-0.000,8.557 0.054,9.100 0.162,9.626 C0.267,10.140 0.424,10.646 0.629,11.129 C0.829,11.604 1.078,12.062 1.367,12.489 C1.653,12.913 1.981,13.310 2.343,13.672 C2.704,14.034 3.103,14.362 3.526,14.648 C3.954,14.937 4.411,15.186 4.885,15.386 C5.369,15.591 5.875,15.747 6.389,15.852 C6.916,15.961 7.458,16.016 8.000,16.016 C8.542,16.016 9.084,15.961 9.611,15.852 C10.125,15.747 10.631,15.591 11.114,15.386 C11.588,15.186 12.046,14.937 12.473,14.648 C12.897,14.362 13.295,14.034 13.657,13.672 C14.019,13.310 14.347,12.913 14.633,12.489 C14.922,12.062 15.171,11.604 15.371,11.129 C15.575,10.646 15.733,10.140 15.837,9.626 C15.946,9.100 16.000,8.557 16.000,8.014 C16.000,7.473 15.946,6.930 15.837,6.404 ZM14.830,7.947 C14.731,7.925 12.419,7.428 10.071,7.723 C10.023,7.606 9.975,7.489 9.924,7.370 C9.782,7.036 9.629,6.705 9.470,6.379 C12.168,5.278 13.264,3.693 13.277,3.675 C14.235,4.838 14.814,6.326 14.830,7.947 ZM12.513,2.888 C12.496,2.914 11.523,4.395 8.944,5.361 C7.776,3.215 6.493,1.510 6.390,1.375 C6.906,1.250 7.445,1.182 8.000,1.182 C9.730,1.182 11.309,1.827 12.513,2.888 ZM6.364,1.381 C6.363,1.381 6.362,1.382 6.362,1.382 C6.362,1.382 6.355,1.384 6.342,1.387 C6.349,1.384 6.356,1.383 6.364,1.381 ZM5.085,1.836 C5.176,1.957 6.439,3.671 7.622,5.772 C4.341,6.644 1.494,6.610 1.314,6.606 C1.758,4.490 3.179,2.736 5.085,1.836 ZM1.168,8.014 C1.168,7.942 1.171,7.870 1.173,7.798 C1.294,7.801 4.670,7.878 8.188,6.826 C8.384,7.208 8.571,7.598 8.742,7.986 C8.652,8.012 8.562,8.039 8.473,8.068 C4.786,9.260 2.916,12.578 2.916,12.578 C2.916,12.578 2.918,12.579 2.918,12.581 C1.830,11.370 1.168,9.770 1.168,8.014 ZM8.000,14.847 C6.346,14.847 4.830,14.260 3.648,13.281 C3.738,13.354 3.801,13.401 3.801,13.401 C3.801,13.401 5.111,10.544 9.163,9.133 C9.178,9.128 9.193,9.123 9.208,9.119 C10.169,11.617 10.566,13.709 10.667,14.307 C9.848,14.655 8.946,14.847 8.000,14.847 ZM11.818,13.682 C11.748,13.269 11.384,11.264 10.488,8.802 C12.694,8.449 14.605,9.053 14.746,9.100 C14.442,11.003 13.352,12.646 11.818,13.682 Z"/>
</svg>
